X:1074
T:Connie Hogan's
R:reel
D:Mary MacNamara: Traditional music from East Clare
Z:id:hn-reel-1074
M:C|
L:1/8
K:G
A3G E2DE | G2BG dGBG | A3G E2D2 |1 Bdef gedB :|2 Bdef gede ||
g2bg egde | g2bg eaaf | g2bg egge | dega bg~g2 |
gabg egde | gabg ea~a2 | bgaf gedg | e2af gedB ||

